X: 31301
T: Paddy Kelly's
R: reel
M: 4/4
K: Gmajor
BGAG DG~G2|ABcA defg|afge ~f3e|dfed cAdc|
BGAG DG~G2|ABcA defg|afge~f3e|1 dcAF G2 dc:|2 dcAF G4||
|:defg a2 fa|gfde d^cA^c|defg ad~d2|fdfa g2 fe|
defg a2fa|gfde d^cAG|FD (3EFG Agfe|d=cAF G4:|

